src/assets/attach-camera-button.svg

<svg width="33" height="28" viewBox="0 0 33 28" fill="none" xmlns="http://www.w3.org/2000/svg">
<path d="M28.0494 4.92672H25.9375L25.4095 3.28449C25.0672 2.32088 24.4323 1.48708 23.5927 0.898598C22.7531 0.310119 21.7504 -0.00390341 20.7236 3.66276e-05H12.2757C11.2388 0.00196741 10.2287 0.327962 9.38792 0.932009C8.54715 1.53606 7.9182 2.38765 7.58984 3.3666L7.06185 5.00883H4.9499C3.6371 5.00883 2.37808 5.52789 1.44979 6.45182C0.521506 7.37575 0 8.62887 0 9.93551V23.0733C0 24.38 0.521506 25.6331 1.44979 26.557C2.37808 27.4809 3.6371 28 4.9499 28H28.0494C29.3622 28 30.6212 27.4809 31.5495 26.557C32.4778 25.6331 32.9993 24.38 32.9993 23.0733V9.93551C33.0103 9.28165 32.8903 8.63216 32.6465 8.02492C32.4026 7.41768 32.0398 6.86483 31.579 6.39862C31.1183 5.9324 30.5689 5.56214 29.9629 5.30943C29.3569 5.05673 28.7064 4.92663 28.0494 4.92672ZM29.6994 22.9912C29.6994 23.4268 29.5255 23.8445 29.2161 24.1524C28.9067 24.4604 28.487 24.6334 28.0494 24.6334H4.9499C4.5123 24.6334 4.09262 24.4604 3.7832 24.1524C3.47377 23.8445 3.29993 23.4268 3.29993 22.9912V9.8534C3.29993 9.41785 3.47377 9.00014 3.7832 8.69217C4.09262 8.38419 4.5123 8.21117 4.9499 8.21117H8.24983C8.60963 8.22986 8.96569 8.13082 9.26362 7.92918C9.56156 7.72753 9.78499 7.43437 9.89979 7.09446L10.7908 4.4012C10.9015 4.07502 11.1123 3.79172 11.3936 3.59133C11.6749 3.39094 12.0123 3.2836 12.3582 3.28449H20.8061C21.152 3.2836 21.4894 3.39094 21.7707 3.59133C22.052 3.79172 22.2628 4.07502 22.3735 4.4012L23.2645 7.09446C23.3704 7.4077 23.5688 7.68186 23.8337 7.8811C24.0986 8.08033 24.4178 8.19537 24.7495 8.21117H28.0494C28.487 8.21117 28.9067 8.38419 29.2161 8.69217C29.5255 9.00014 29.6994 9.41785 29.6994 9.8534V22.9912ZM16.4997 8.21117C15.1943 8.21117 13.9183 8.59643 12.833 9.31823C11.7476 10.04 10.9017 11.066 10.4022 12.2663C9.90265 13.4666 9.77195 14.7874 10.0266 16.0616C10.2813 17.3358 10.9098 18.5063 11.8328 19.425C12.7559 20.3437 13.9318 20.9693 15.2121 21.2228C16.4923 21.4762 17.8193 21.3461 19.0253 20.849C20.2313 20.3518 21.262 19.5098 21.9872 18.4296C22.7124 17.3493 23.0995 16.0793 23.0995 14.7801C23.0995 13.0379 22.4042 11.3671 21.1665 10.1352C19.9288 8.90325 18.25 8.21117 16.4997 8.21117ZM16.4997 18.0645C15.847 18.0645 15.209 17.8719 14.6663 17.511C14.1236 17.1501 13.7007 16.6371 13.4509 16.037C13.2012 15.4368 13.1358 14.7764 13.2631 14.1393C13.3905 13.5022 13.7048 12.917 14.1663 12.4576C14.6278 11.9983 15.2157 11.6855 15.8559 11.5587C16.496 11.432 17.1595 11.497 17.7625 11.7456C18.3655 11.9942 18.8808 12.4152 19.2434 12.9553C19.6061 13.4955 19.7996 14.1305 19.7996 14.7801C19.7996 15.6512 19.4519 16.4866 18.8331 17.1025C18.2142 17.7185 17.3749 18.0645 16.4997 18.0645Z" fill="#3E3E3E"/>
</svg>

<svg width="33" height="28" fill="none" xmlns="http://www.w3.org/2000/svg"><path d="M28.05 4.927h-2.113l-.527-1.643A4.93 4.93 0 0023.593.9a4.966 4.966 0 00-2.87-.9h-8.447a4.966 4.966 0 00-2.888.932A4.928 4.928 0 007.59 3.367l-.528 1.642H4.95a4.96 4.96 0 00-3.5 1.443A4.915 4.915 0 000 9.936v13.137c0 1.307.522 2.56 1.45 3.484A4.962 4.962 0 004.95 28h23.1c1.312 0 2.571-.52 3.5-1.443A4.915 4.915 0 0033 23.073V9.936a4.906 4.906 0 00-1.421-3.537 4.95 4.95 0 00-3.53-1.472zM29.7 22.99c0 .436-.174.854-.484 1.161-.31.308-.729.481-1.167.481H4.95c-.437 0-.856-.173-1.166-.48A1.638 1.638 0 013.3 22.99V9.853c0-.435.174-.853.483-1.16.31-.309.73-.482 1.167-.482h3.3A1.656 1.656 0 009.9 7.094l.89-2.693a1.643 1.643 0 011.568-1.117h8.448a1.655 1.655 0 011.567 1.117l.892 2.693a1.643 1.643 0 001.485 1.117h3.3c.437 0 .857.173 1.166.481.31.308.483.726.483 1.161v13.138zM16.5 8.211a6.622 6.622 0 00-3.667 1.107 6.575 6.575 0 00-2.43 2.948 6.54 6.54 0 001.43 7.159 6.63 6.63 0 007.193 1.424 6.593 6.593 0 002.961-2.42 6.547 6.547 0 00-.82-8.294A6.616 6.616 0 0016.5 8.211zm0 9.853a3.312 3.312 0 01-1.834-.553 3.271 3.271 0 01-.5-5.053 3.305 3.305 0 013.596-.712c.604.248 1.119.67 1.481 1.21a3.273 3.273 0 01-.41 4.146 3.308 3.308 0 01-2.333.962z" fill="#3E3E3E"/></svg>
